; generated by PrusaSlicer 2.3.1+win64 on 2021-06-03 at 16:51:06 UTC

; 

; external perimeters extrusion width = 0.45mm
; perimeters extrusion width = 0.45mm
; infill extrusion width = 0.45mm
; solid infill extrusion width = 0.45mm
; top infill extrusion width = 0.40mm
; support material extrusion width = 0.35mm
; first layer extrusion width = 0.42mm

M73 P0 R248
M73 Q0 S249
M201 X1000 Y1000 Z1000 E5000 ; sets maximum accelerations, mm/sec^2
M203 X200 Y200 Z12 E120 ; sets maximum feedrates, mm/sec
M204 P1250 R1250 T1250 ; sets acceleration (P, T) and retract acceleration (R), mm/sec^2
M205 X8.00 Y8.00 Z0.40 E1.50 ; sets the jerk limits, mm/sec
M205 S0 T0 ; sets the minimum extruding and travel feed rate, mm/sec
M107
;TYPE:Custom
M115 U3.7.1 ; tell printer latest fw version
G90 ; use absolute coordinates
M83 ; extruder relative mode
M104 S205 ; set extruder temp
M140 S60 ; set bed temp
M190 S60 ; wait for bed temp
M109 S205 ; wait for extruder temp
G28 W ; home all without mesh bed level
G80 ; mesh bed leveling
G1 Y-3.0 F1000.0 ; go outside print area
G92 E0.0
G1 X60.0 E9.0 F1000.0 ; intro line
G1 X100.0 E12.5 F1000.0 ; intro line
G92 E0.0
M221 S95
G21 ; set units to millimeters
G90 ; use absolute coordinates
M83 ; use relative distances for extrusion
M900 K30 ; Filament gcode
;LAYER_CHANGE
;Z:0.2
;HEIGHT:0.2
;BEFORE_LAYER_CHANGE
G92 E0.0
;0.2


G1 E-0.80000 F2100.000
G1 Z0.200 F10800.000
;AFTER_LAYER_CHANGE
;0.2
G1 X71.463 Y51.705
G1 E0.80000 F2100.000
M204 S1000
;TYPE:Skirt
;WIDTH:0.42
G1 F1200.000
G1 X72.361 Y51.523 E0.02872
G1 X177.629 Y51.523 E3.30060
G1 X178.531 Y51.702 E0.02884
G1 X179.295 Y52.208 E0.02872
G1 X179.810 Y52.965 E0.02872
G1 X180.002 Y53.861 E0.02872
G1 X180.002 Y156.115 E3.20611
G1 X179.817 Y157.020 E0.02896
G1 X179.301 Y157.786 E0.02896
G1 X178.539 Y158.294 E0.02872
G1 X177.641 Y158.477 E0.02872
G1 X72.375 Y158.477 E3.30055
M73 P0 R247
G1 X71.462 Y158.295 E0.02919
G1 X70.689 Y157.776 E0.02919
G1 X70.203 Y157.066 E0.02696
G1 X70.001 Y156.227 E0.02708
G1 X66.817 Y85.822 E2.20976
G1 X66.815 Y61.073 E0.77598
G1 X66.866 Y60.585 E0.01538
G1 X67.015 Y60.118 E0.01538
G1 X70.221 Y52.894 E0.24779
G1 X70.701 Y52.212 E0.02614
G1 X71.413 Y51.738 E0.02684
;WIPE_START
G1 F8640.000
G1 X72.361 Y51.523 E-0.22440
G1 X74.681 Y51.523 E-0.53560
;WIPE_END
G1 E-0.04000 F2100.000
G1 X66.813 Y89.896 F10800.000
G1 E0.80000 F2100.000
G1 F1200.000
G1 X66.337 Y89.647 E0.01685
G1 X65.366 Y88.751 E0.04140
G1 X64.718 Y87.767 E0.03694
G1 X64.290 Y86.251 E0.04939
G1 X64.290 Y60.599 E0.80433
G1 X64.743 Y58.973 E0.05292
G1 X65.477 Y57.858 E0.04185
G1 X66.480 Y56.967 E0.04206
G1 X67.472 Y56.461 E0.03493
G1 X67.676 Y56.398 E0.00667
G1 X67.730 Y52.921 E0.10902
G1 X67.999 Y52.062 E0.02821
G1 X68.414 Y51.287 E0.02759
G1 X69.307 Y50.298 E0.04177
G1 X70.458 Y49.558 E0.04292
G1 X71.854 Y49.187 E0.04531
G1 X178.111 Y49.190 E3.33161
G1 X179.060 Y49.374 E0.03029
G1 X179.968 Y49.765 E0.03101
G1 X181.187 Y50.788 E0.04990
G1 X181.978 Y52.006 E0.04551
G1 X182.338 Y53.389 E0.04481
G1 X182.338 Y102.510 E1.54016
G1 X181.991 Y103.859 E0.04369
G1 X181.599 Y104.597 E0.02621
G1 X181.282 Y104.961 E0.01513
G1 X181.958 Y106.060 E0.04046
G1 X182.338 Y107.488 E0.04634
G1 X182.338 Y156.610 E1.54017
G1 X182.040 Y157.833 E0.03947
G1 X181.631 Y158.649 E0.02863
G1 X180.702 Y159.694 E0.04385
G1 X179.542 Y160.442 E0.04326
G1 X178.146 Y160.813 E0.04531
G1 X71.865 Y160.813 E3.33234
G1 X70.642 Y160.515 E0.03947
G1 X69.826 Y160.106 E0.02863
G1 X68.781 Y159.177 E0.04385
G1 X68.033 Y158.017 E0.04326
G1 X67.662 Y156.621 E0.04531
G1 X67.662 Y108.665 E1.50360
;WIPE_START
G1 F8640.000
G1 X67.662 Y111.957 E-0.76000
;WIPE_END
G1 E-0.04000 F2100.000
G1 X67.937 Y106.418 F10800.000
G1 E0.80000 F2100.000
G1 F1200.000
G1 X68.009 Y106.141 E0.00896
G1 X68.401 Y105.403 E0.02621
G1 X68.723 Y105.034 E0.01536
G1 X68.109 Y104.086 E0.03541
G1 X67.781 Y102.962 E0.03671
;WIPE_START
G1 F8640.000
G1 X68.109 Y104.086 E-0.27033
G1 X68.723 Y105.034 E-0.26075
G1 X68.401 Y105.403 E-0.11312
G1 X68.166 Y105.846 E-0.11580
;WIPE_END
G1 E-0.04000 F2100.000
G1 X67.669 Y100.476 F10800.000
G1 E0.80000 F2100.000
G1 F1200.000
G1 X67.662 Y90.264 E0.32017
G1 X67.349 Y90.176 E0.01023
G1 X67.199 Y90.098 E0.00528
G1 X67.180 Y89.662 F10800.000
G1 F1200.000
G1 X67.502 Y89.831 E0.01140
G1 X68.039 Y89.968 E0.01739
G1 X68.047 Y102.554 E0.39463
G1 X68.462 Y103.951 E0.04570
G1 X68.960 Y104.706 E0.02837
G1 X69.260 Y105.004 E0.01325
G1 X68.723 Y105.602 E0.02518
G1 X68.352 Y106.298 E0.02474
G1 X68.039 Y107.514 E0.03937
G1 X68.039 Y108.657 E0.03583
;WIPE_START
G1 F8640.000
G1 X68.039 Y107.514 E-0.26383
G1 X68.352 Y106.298 E-0.28994
G1 X68.723 Y105.602 E-0.18222
G1 X68.792 Y105.524 E-0.02402
;WIPE_END
G1 E-0.04000 F2100.000
G1 X68.039 Y117.003 F10800.000
G1 E0.80000 F2100.000
G1 F1200.000
G1 X68.039 Y156.595 E1.24139
G1 X68.389 Y157.890 E0.04205
G1 X69.052 Y158.913 E0.03822
G1 X70.019 Y159.782 E0.04077
G1 X70.755 Y160.155 E0.02586
G1 X71.889 Y160.436 E0.03664
G1 X178.120 Y160.436 E3.33081
M73 Q0 S248
G1 X179.415 Y160.086 E0.04205
G1 X180.438 Y159.423 E0.03822
G1 X181.307 Y158.456 E0.04077
G1 X181.680 Y157.720 E0.02586
G1 X181.961 Y156.586 E0.03664
G1 X181.961 Y107.513 E1.53864
G1 X181.602 Y106.186 E0.04312
G1 X181.068 Y105.329 E0.03167
G1 X180.734 Y105.003 E0.01462
G1 X181.277 Y104.398 E0.02548
G1 X181.648 Y103.702 E0.02474
G1 X181.961 Y102.486 E0.03937
G1 X181.961 Y53.413 E1.53863
G1 X181.621 Y52.132 E0.04157
G1 X180.922 Y51.058 E0.04018
G1 X179.791 Y50.099 E0.04647
G1 X178.966 Y49.740 E0.02823
G1 X178.092 Y49.567 E0.02791
G1 X71.880 Y49.564 E3.33022
G1 X70.585 Y49.914 E0.04205
G1 X69.569 Y50.570 E0.03794
G1 X68.735 Y51.485 E0.03882
G1 X68.340 Y52.224 E0.02626
G1 X68.098 Y53.006 E0.02566
G1 X68.049 Y56.695 E0.11568
G1 X67.620 Y56.809 E0.01391
G1 X66.710 Y57.267 E0.03195
G1 X65.776 Y58.089 E0.03901
G1 X65.097 Y59.105 E0.03831
G1 X64.667 Y60.625 E0.04953
G1 X64.667 Y86.225 E0.80266
G1 X65.072 Y87.634 E0.04598
G1 X65.666 Y88.523 E0.03353
G1 X66.533 Y89.324 E0.03701
G1 X66.793 Y89.460 E0.00918
G1 X67.160 Y89.226 F10800.000
G1 F1200.000
G1 X67.655 Y89.485 E0.01752
G1 X68.416 Y89.668 E0.02455
G1 X68.424 Y102.526 E0.40315
G1 X68.793 Y103.766 E0.04056
G1 X69.263 Y104.480 E0.02679
G1 X69.789 Y104.987 E0.02292
G1 X69.044 Y105.801 E0.03461
G1 X68.695 Y106.456 E0.02327
G1 X68.416 Y107.538 E0.03505
G1 X68.416 Y116.994 E0.29649
;WIPE_START
G1 F8640.000
G1 X68.416 Y113.703 E-0.76000
;WIPE_END
G1 E-0.04000 F2100.000
G1 X68.416 Y125.340 F10800.000
G1 E0.80000 F2100.000
G1 F1200.000
G1 X68.416 Y156.569 E0.97917
G1 X68.744 Y157.761 E0.03876
G1 X69.323 Y158.650 E0.03326
G1 X70.214 Y159.458 E0.03773
G1 X70.869 Y159.795 E0.02308
G1 X71.913 Y160.059 E0.03376
G1 X178.094 Y160.059 E3.32925
M73 P0 R246
G1 X179.286 Y159.731 E0.03876
G1 X180.175 Y159.152 E0.03326
G1 X180.983 Y158.261 E0.03773
G1 X181.320 Y157.606 E0.02308
G1 X181.584 Y156.562 E0.03376
G1 X181.584 Y107.538 E1.53712
G1 X181.267 Y106.362 E0.03821
G1 X180.762 Y105.551 E0.02996
G1 X180.200 Y105.025 E0.02412
G1 X180.956 Y104.199 E0.03508
G1 X181.305 Y103.544 E0.02327
G1 X181.584 Y102.462 E0.03505
G1 X181.584 Y53.438 E1.53712
G1 X181.288 Y52.310 E0.03655
G1 X180.655 Y51.326 E0.03669
G1 X179.613 Y50.433 E0.04302
G1 X178.871 Y50.105 E0.02545
G1 X178.073 Y49.944 E0.02550
G1 X71.906 Y49.941 E3.32881
G1 X70.714 Y50.269 E0.03876
G1 X69.830 Y50.843 E0.03304
G1 X69.055 Y51.686 E0.03590
G1 X68.694 Y52.353 E0.02378
G1 X68.467 Y53.091 E0.02421
G1 X68.429 Y56.468 E0.10589
G1 X68.168 Y57.056 F10800.000
G1 F1200.000
G1 X67.770 Y57.156 E0.01286
G1 X66.901 Y57.593 E0.03049
G1 X66.074 Y58.321 E0.03455
G1 X65.451 Y59.239 E0.03479
G1 X65.044 Y60.652 E0.04610
G1 X65.044 Y86.197 E0.80096
G1 X65.425 Y87.499 E0.04254
G1 X65.939 Y88.262 E0.02884
G1 X66.773 Y89.024 E0.03541
G1 X67.140 Y88.790 F10800.000
G1 F1200.000
G1 X67.808 Y89.140 E0.02362
G1 X68.467 Y89.292 E0.02122
G1 X68.793 Y89.303 E0.01023
G1 X68.801 Y102.499 E0.41374
G1 X69.123 Y103.582 E0.03543
G1 X69.565 Y104.253 E0.02521
G1 X70.369 Y105.013 E0.03468
G1 X70.089 Y105.217 E0.01085
G1 X69.339 Y106.037 E0.03483
G1 X69.040 Y106.611 E0.02030
G1 X68.793 Y107.562 E0.03082
G1 X68.793 Y125.332 E0.55715
;WIPE_START
G1 F8640.000
G1 X68.793 Y122.040 E-0.76000
;WIPE_END
G1 E-0.04000 F2100.000
G1 X68.793 Y133.678 F10800.000
G1 E0.80000 F2100.000
G1 F1200.000
G1 X68.793 Y156.543 E0.71692
G1 X69.099 Y157.630 E0.03542
G1 X69.595 Y158.388 E0.02840
G1 X70.412 Y159.136 E0.03471
G1 X70.986 Y159.435 E0.02030
G1 X71.937 Y159.682 E0.03082
G1 X178.068 Y159.682 E3.32765
G1 X179.155 Y159.376 E0.03542
G1 X179.913 Y158.880 E0.02840
G1 X180.661 Y158.063 E0.03471
G1 X180.960 Y157.489 E0.02030
G1 X181.207 Y156.538 E0.03082
G1 X181.207 Y107.563 E1.53558
G1 X180.932 Y106.537 E0.03329
G1 X180.456 Y105.773 E0.02825
G1 X180.190 Y105.530 E0.01128
G1 X179.813 Y105.184 F10800.000
G1 F1200.000
G1 X179.611 Y104.999 E0.00859
G1 X179.813 Y104.853 E0.00782
G1 X180.190 Y104.477 F10800.000
G1 F1200.000
G1 X180.661 Y103.963 E0.02184
G1 X180.960 Y103.389 E0.02030
G1 X181.207 Y102.438 E0.03082
G1 X181.207 Y53.463 E1.53558
G1 X180.931 Y52.437 E0.03331
G1 X180.387 Y51.592 E0.03149
G1 X179.433 Y50.765 E0.03960
G1 X178.773 Y50.470 E0.02266
G1 X178.054 Y50.321 E0.02304
G1 X71.932 Y50.318 E3.32736
M73 Q0 S247
G1 X70.845 Y50.624 E0.03543
G1 X70.091 Y51.117 E0.02824
G1 X69.374 Y51.888 E0.03301
G1 X69.049 Y52.483 E0.02125
G1 X68.835 Y53.176 E0.02274
G1 X68.813 Y55.602 E0.07608
G1 X68.804 Y56.551 F10800.000
G1 F1200.000
G1 X68.798 Y57.291 E0.02320
G1 X68.438 Y57.378 E0.01161
G1 X67.976 Y57.489 F10800.000
G1 F1200.000
G1 X67.093 Y57.918 E0.03077
G1 X66.342 Y58.587 E0.03153
G1 X65.804 Y59.374 E0.02989
G1 X65.421 Y60.679 E0.04265
G1 X65.421 Y86.169 E0.79922
G1 X65.778 Y87.363 E0.03906
G1 X66.213 Y88.002 E0.02426
G1 X66.750 Y88.510 E0.02316
G1 X67.120 Y88.350 F10800.000
G1 F1200.000
G1 X67.917 Y88.778 E0.02835
G1 X68.529 Y88.919 E0.01969
G1 X69.170 Y88.924 E0.02010
G1 X69.178 Y102.471 E0.42478
G1 X69.454 Y103.400 E0.03037
G1 X69.841 Y103.995 E0.02226
G1 X70.575 Y104.689 E0.03166
G1 X71.097 Y104.985 E0.01885
G1 X70.349 Y105.492 E0.02835
G1 X69.660 Y106.236 E0.03178
G1 X69.398 Y106.729 E0.01752
G1 X69.170 Y107.587 E0.02783
G1 X69.170 Y133.669 E0.81778
;WIPE_START
G1 F8640.000
G1 X69.170 Y130.378 E-0.76000
;WIPE_END
G1 E-0.04000 F2100.000
G1 X69.170 Y142.015 F10800.000
G1 E0.80000 F2100.000
G1 F1200.000
G1 X69.170 Y156.516 E0.45465
G1 X69.453 Y157.498 E0.03204
G1 X69.868 Y158.127 E0.02364
G1 X70.611 Y158.815 E0.03174
G1 X71.104 Y159.077 E0.01752
G1 X71.962 Y159.305 E0.02783
G1 X178.041 Y159.305 E3.32602
G1 X179.023 Y159.022 E0.03204
G1 X179.652 Y158.607 E0.02364
G1 X180.340 Y157.864 E0.03174
G1 X180.602 Y157.371 E0.01752
G1 X180.830 Y156.513 E0.02783
G1 X180.830 Y107.587 E1.53402
G1 X180.597 Y106.713 E0.02837
G1 X180.190 Y106.060 E0.02411
G1 X179.813 Y105.692 F10800.000
G1 F1200.000
G1 X179.295 Y105.224 E0.02188
G1 X178.901 Y105.016 E0.01398
G1 X179.651 Y104.508 E0.02841
G1 X179.813 Y104.333 E0.00748
G1 X180.190 Y103.926 F10800.000
G1 F1200.000
G1 X180.340 Y103.764 E0.00690
G1 X180.602 Y103.271 E0.01752
G1 X180.830 Y102.413 E0.02783
G1 X180.830 Y53.487 E1.53402
G1 X180.597 Y52.614 E0.02835
G1 X180.117 Y51.857 E0.02809
G1 X179.253 Y51.097 E0.03609
G1 X178.638 Y50.823 E0.02110
G1 X178.035 Y50.698 E0.01933
G1 X71.959 Y50.695 E3.32592
G1 X70.977 Y50.978 E0.03204
G1 X70.350 Y51.391 E0.02354
G1 X69.692 Y52.092 E0.03015
G1 X69.403 Y52.613 E0.01868
G1 X69.204 Y53.261 E0.02124
G1 X69.193 Y54.746 E0.04658
G1 X69.186 Y55.691 F10800.000
G1 F1200.000
G1 X69.172 Y57.684 E0.06252
G1 X68.729 Y57.696 E0.01390
G1 X68.247 Y57.808 E0.01554
G1 X67.743 Y58.013 F10800.000
G1 F1200.000
G1 X67.286 Y58.244 E0.01605
G1 X66.611 Y58.852 E0.02849
G1 X66.156 Y59.511 E0.02511
G1 X65.798 Y60.707 E0.03914
M73 P0 R245
G1 X65.798 Y86.141 E0.79745
G1 X66.129 Y87.224 E0.03551
G1 X66.488 Y87.744 E0.01980
G1 X66.726 Y87.971 E0.01032
G1 X67.095 Y87.804 F10800.000
G1 F1200.000
G1 X67.373 Y88.070 E0.01205
G1 X68.026 Y88.416 E0.02317
G1 X68.592 Y88.546 E0.01821
G1 X69.547 Y88.543 E0.02995
G1 X69.555 Y102.442 E0.43579
G1 X69.806 Y103.262 E0.02686
G1 X70.142 Y103.767 E0.01903
G1 X70.813 Y104.396 E0.02883
G1 X71.227 Y104.620 E0.01476
G1 X72.064 Y104.857 E0.02729
G1 X72.067 Y105.139 E0.00885
G1 X71.113 Y105.431 E0.03128
G1 X70.608 Y105.767 E0.01903
G1 X69.979 Y106.438 E0.02883
G1 X69.755 Y106.851 E0.01474
G1 X69.547 Y107.613 E0.02477
G1 X69.547 Y142.007 E1.07839
;WIPE_START
G1 F8640.000
G1 X69.547 Y138.715 E-0.76000
;WIPE_END
G1 E-0.04000 F2100.000
G1 X69.547 Y150.353 F10800.000
G1 E0.80000 F2100.000
G1 F1200.000
G1 X69.547 Y156.488 E0.19236
G1 X69.806 Y157.362 E0.02860
G1 X70.142 Y157.867 E0.01900
G1 X70.813 Y158.496 E0.02883
G1 X71.226 Y158.720 E0.01474
G1 X71.988 Y158.928 E0.02477
G1 X178.013 Y158.928 E3.32433
M73 P1 R245
M73 Q1 S247
G1 X178.887 Y158.669 E0.02860
G1 X179.392 Y158.333 E0.01900
G1 X180.021 Y157.662 E0.02883
G1 X180.245 Y157.249 E0.01474
G1 X180.453 Y156.487 E0.02477
G1 X180.453 Y107.613 E1.53240
G1 X180.241 Y106.841 E0.02510
G1 X180.190 Y106.761 E0.00298
G1 X179.813 Y106.191 F10800.000
G1 F1200.000
G1 X179.069 Y105.528 E0.03125
G1 X178.575 Y105.299 E0.01706
G1 X177.936 Y105.153 E0.02058
G1 X177.925 Y104.863 E0.00908
G1 X178.887 Y104.569 E0.03152
G1 X179.392 Y104.233 E0.01903
G1 X179.813 Y103.783 E0.01932
G1 X180.190 Y103.249 F10800.000
G1 F1200.000
G1 X180.245 Y103.149 E0.00356
G1 X180.453 Y102.387 E0.02477
G1 X180.453 Y53.513 E1.53240
G1 X180.241 Y52.741 E0.02510
G1 X179.847 Y52.121 E0.02306
G1 X179.070 Y51.428 E0.03263
G1 X178.539 Y51.187 E0.01829
G1 X178.014 Y51.076 E0.01682
G1 X71.987 Y51.072 E3.32440
G1 X71.113 Y51.331 E0.02860
G1 X70.609 Y51.666 E0.01896
G1 X70.009 Y52.298 E0.02733
G1 X69.758 Y52.744 E0.01605
G1 X69.572 Y53.345 E0.01971
G1 X69.569 Y53.898 E0.01735
G1 X69.564 Y54.839 F10800.000
G1 F1200.000
G1 X69.548 Y58.060 E0.10101
G1 X68.790 Y58.068 E0.02375
G1 X68.216 Y58.197 E0.01845
G1 X68.033 Y58.290 E0.00644
G1 X67.502 Y58.557 F10800.000
G1 F1200.000
G1 X66.881 Y59.116 E0.02619
G1 X66.508 Y59.651 E0.02045
G1 X66.176 Y60.736 E0.03558
G1 X66.176 Y86.113 E0.79567
G1 X66.457 Y87.036 E0.03026
G1 X66.699 Y87.391 E0.01348
G1 X67.071 Y87.258 F10800.000
G1 F1200.000
G1 X67.615 Y87.779 E0.02363
G1 X68.137 Y88.055 E0.01852
G1 X68.614 Y88.169 E0.01537
G1 X69.473 Y88.167 E0.02694
G1 X69.924 Y88.214 E0.01422
G1 X69.924 Y102.359 E0.44349
G1 X70.158 Y103.124 E0.02509
G1 X70.416 Y103.508 E0.01450
G1 X71.018 Y104.078 E0.02599
G1 X71.351 Y104.263 E0.01196
G1 X72.015 Y104.451 E0.02162
G1 X177.984 Y104.451 E3.32258
G1 X178.749 Y104.217 E0.02509
G1 X179.133 Y103.959 E0.01450
G1 X179.703 Y103.357 E0.02599
G1 X179.813 Y103.159 E0.00711
;WIPE_START
G1 F8640.000
G1 X179.703 Y103.357 E-0.05238
G1 X179.133 Y103.959 E-0.19143
G1 X178.749 Y104.217 E-0.10678
G1 X177.984 Y104.451 E-0.18477
G1 X177.011 Y104.451 E-0.22464
;WIPE_END
G1 E-0.04000 F2100.000
G1 X66.655 Y86.421 F10800.000
G1 E0.80000 F2100.000
G1 F1200.000
G1 X66.553 Y86.085 E0.01104
G1 X66.553 Y60.764 E0.79391
G1 X66.835 Y59.840 E0.03029
G1 X67.110 Y59.440 E0.01521
G1 X67.796 Y58.823 F10800.000
G1 F1200.000
G1 X68.324 Y58.559 E0.01850
G1 X68.816 Y58.445 E0.01583
G1 X69.924 Y58.434 E0.03475
G1 X69.939 Y53.995 E0.13917
;WIPE_START
G1 F8640.000
G1 X69.928 Y57.287 E-0.76000
;WIPE_END
G1 E-0.04000 F2100.000
G1 X72.044 Y51.826 F10800.000
G1 E0.80000 F2100.000
G1 F1200.000
G1 X177.971 Y51.830 E3.32125
M73 Q1 S246
G1 X178.330 Y51.913 E0.01157
G1 X178.696 Y52.085 E0.01268
G1 X179.301 Y52.643 E0.02580
G1 X179.533 Y53.005 E0.01347
G1 X179.699 Y53.568 E0.01841
G1 X179.699 Y102.332 E1.52896
G1 X179.534 Y102.894 E0.01838
G1 X179.388 Y103.149 E0.00919
G1 X178.877 Y103.681 E0.02316
G1 X178.565 Y103.887 E0.01172
G1 X177.956 Y104.074 E0.01997
G1 X72.043 Y104.074 E3.32082
G1 X71.481 Y103.909 E0.01838
G1 X71.226 Y103.763 E0.00919
G1 X70.694 Y103.252 E0.02316
G1 X70.488 Y102.940 E0.01172
G1 X70.301 Y102.331 E0.01997
G1 X70.301 Y87.818 E0.45503
G1 X69.690 Y87.818 E0.01915
G1 X69.505 Y87.789 E0.00587
G1 X68.674 Y87.797 E0.02606
G1 X68.290 Y87.709 E0.01235
G1 X67.816 Y87.459 E0.01682
